;FLAVOR:Marlin
;TIME:586
;Filament used: 0.121342m
;Layer height: 0.04
;MINX:96.232
;MINY:96.527
;MINZ:0.16
;MAXX:123.768
;MAXY:123.473
;MAXZ:3.16
;TARGET_MACHINE.NAME:Creality Ender-3 V3 SE
;Generated with Cura_SteamEngine 5.6.0-beta.1
M140 S60
M105
M190 S60
M104 S220
M105
M109 S220
M82 ;absolute extrusion mode
M220 S100 ;Reset Feedrate
M221 S100 ;Reset Flowrate

G28 ;Home

M420 S1; Enable mesh leveling

G92 E0 ;Reset Extruder
G1 Z2.0 F3000 ;Move Z Axis up
G1 X10.1 Y20 Z0.28 F5000.0 ;Move to start position
M109 S[material_print_temperature_layer_0]
G1 X10.1 Y145.0 Z0.28 F1500.0 E15 ;Draw the first line
G1 X10.4 Y145.0 Z0.28 F5000.0 ;Move to side a little
G1 X10.4 Y20 Z0.28 F1500.0 E30 ;Draw the second line
G92 E0  ;Reset Extruder
G1 E-1.0000 F1800 ;Retract a bit
G1 Z2.0 F3000 ;Move Z Axis up
G1 E0.0000 F1800 

G92 E0
G92 E0
G1 F2400 E-1
;LAYER_COUNT:9
;LAYER:0
M107
G1 F300 Z3.16
;MESH:frame.stl
G0 F9000 X123.768 Y123.473 Z3.16
;TYPE:SKIN
G1 F300 Z0.16
G1 F2400 E0
G1 F1500 X96.232 Y123.473 E0.73268
G1 X96.232 Y96.527 E1.44966
G1 X123.768 Y96.527 E2.18234
G1 X123.768 Y123.473 E2.89933
G0 F9000 X123.2 Y123.273
G1 F1500 X123.2 Y96.727 E3.60566
G0 F9000 X122.8 Y96.727
G1 F1500 X122.8 Y123.273 E4.312
G0 F9000 X122.4 Y123.273
G1 F1500 X122.4 Y96.727 E5.01834
G0 F9000 X122 Y96.727
G1 F1500 X122 Y123.273 E5.72468
G0 F9000 X121.6 Y123.273
G1 F1500 X121.6 Y96.727 E6.43102
G0 F9000 X121.2 Y96.727
G1 F1500 X121.2 Y123.273 E7.13736
G0 F9000 X120.8 Y123.273
G1 F1500 X120.8 Y96.727 E7.8437
G0 F9000 X120.4 Y96.727
G1 F1500 X120.4 Y123.273 E8.55004
G0 F9000 X120 Y123.273
G1 F1500 X120 Y96.727 E9.25638
G0 F9000 X119.6 Y96.727
G1 F1500 X119.6 Y123.273 E9.96271
G0 F9000 X119.2 Y123.273
G1 F1500 X119.2 Y96.727 E10.66905
G0 F9000 X118.8 Y96.727
G1 F1500 X118.8 Y123.273 E11.37539
G0 F9000 X118.4 Y123.273
G1 F1500 X118.4 Y96.727 E12.08173
G0 F9000 X118 Y96.727
G1 F1500 X118 Y123.273 E12.78807
G0 F9000 X117.6 Y123.273
G1 F1500 X117.6 Y96.727 E13.49441
G0 F9000 X117.2 Y96.727
G1 F1500 X117.2 Y123.273 E14.20075
G0 F9000 X116.8 Y123.273
G1 F1500 X116.8 Y96.727 E14.90709
G0 F9000 X116.4 Y96.727
G1 F1500 X116.4 Y123.273 E15.61342
G0 F9000 X116 Y123.273
G1 F1500 X116 Y96.727 E16.31976
G0 F9000 X115.6 Y96.727
G1 F1500 X115.6 Y123.273 E17.0261
G0 F9000 X115.2 Y123.273
G1 F1500 X115.2 Y96.727 E17.73244
G0 F9000 X114.8 Y96.727
G1 F1500 X114.8 Y123.273 E18.43878
G0 F9000 X114.4 Y123.273
G1 F1500 X114.4 Y96.727 E19.14512
G0 F9000 X114 Y96.727
G1 F1500 X114 Y123.273 E19.85146
G0 F9000 X113.6 Y123.273
G1 F1500 X113.6 Y96.727 E20.5578
G0 F9000 X113.2 Y96.727
G1 F1500 X113.2 Y123.273 E21.26414
G0 F9000 X112.8 Y123.273
G1 F1500 X112.8 Y96.727 E21.97047
G0 F9000 X112.4 Y96.727
G1 F1500 X112.4 Y123.273 E22.67681
G0 F9000 X112 Y123.273
G1 F1500 X112 Y96.727 E23.38315
G0 F9000 X111.6 Y96.727
G1 F1500 X111.6 Y123.273 E24.08949
G0 F9000 X111.2 Y123.273
G1 F1500 X111.2 Y96.727 E24.79583
G0 F9000 X110.8 Y96.727
G1 F1500 X110.8 Y123.273 E25.50217
G0 F9000 X110.4 Y123.273
G1 F1500 X110.4 Y96.727 E26.20851
G0 F9000 X110 Y96.727
G1 F1500 X110 Y123.273 E26.91485
G0 F9000 X109.6 Y123.273
G1 F1500 X109.6 Y96.727 E27.62119
G0 F9000 X109.2 Y96.727
G1 F1500 X109.2 Y123.273 E28.32752
G0 F9000 X108.8 Y123.273
G1 F1500 X108.8 Y96.727 E29.03386
G0 F9000 X108.4 Y96.727
G1 F1500 X108.4 Y123.273 E29.7402
G0 F9000 X108 Y123.273
G1 F1500 X108 Y96.727 E30.44654
G0 F9000 X107.6 Y96.727
G1 F1500 X107.6 Y123.273 E31.15288
G0 F9000 X107.2 Y123.273
G1 F1500 X107.2 Y96.727 E31.85922
G0 F9000 X106.8 Y96.727
G1 F1500 X106.8 Y123.273 E32.56556
G0 F9000 X106.4 Y123.273
G1 F1500 X106.4 Y96.727 E33.2719
G0 F9000 X106 Y96.727
G1 F1500 X106 Y123.273 E33.97823
G0 F9000 X105.6 Y123.273
G1 F1500 X105.6 Y96.727 E34.68457
G0 F9000 X105.2 Y96.727
G1 F1500 X105.2 Y123.273 E35.39091
G0 F9000 X104.8 Y123.273
G1 F1500 X104.8 Y96.727 E36.09725
G0 F9000 X104.4 Y96.727
G1 F1500 X104.4 Y123.273 E36.80359
G0 F9000 X104 Y123.273
G1 F1500 X104 Y96.727 E37.50993
G0 F9000 X103.6 Y96.727
G1 F1500 X103.6 Y123.273 E38.21627
G0 F9000 X103.2 Y123.273
G1 F1500 X103.2 Y96.727 E38.92261
G0 F9000 X102.8 Y96.727
G1 F1500 X102.8 Y123.273 E39.62895
G0 F9000 X102.4 Y123.273
G1 F1500 X102.4 Y96.727 E40.33528
G0 F9000 X102 Y96.727
G1 F1500 X102 Y123.273 E41.04162
G0 F9000 X101.6 Y123.273
G1 F1500 X101.6 Y96.727 E41.74796
G0 F9000 X101.2 Y96.727
G1 F1500 X101.2 Y123.273 E42.4543
G0 F9000 X100.8 Y123.273
G1 F1500 X100.8 Y96.727 E43.16064
G0 F9000 X100.4 Y96.727
G1 F1500 X100.4 Y123.273 E43.86698
G0 F9000 X100 Y123.273
G1 F1500 X100 Y96.727 E44.57332
G0 F9000 X99.6 Y96.727
G1 F1500 X99.6 Y123.273 E45.27966
G0 F9000 X99.2 Y123.273
G1 F1500 X99.2 Y96.727 E45.98599
G0 F9000 X98.8 Y96.727
G1 F1500 X98.8 Y123.273 E46.69233
G0 F9000 X98.4 Y123.273
G1 F1500 X98.4 Y96.727 E47.39867
G0 F9000 X98 Y96.727
G1 F1500 X98 Y123.273 E48.10501
G0 F9000 X97.6 Y123.273
G1 F1500 X97.6 Y96.727 E48.81135
G0 F9000 X97.2 Y96.727
G1 F1500 X97.2 Y123.273 E49.51769
G0 F9000 X96.8 Y123.273
G1 F1500 X96.8 Y96.727 E50.22403
G0 F9000 X97.272 Y97.449
G1 F2400 E49.22403
;MESH:NONMESH
G0 F300 X97.272 Y97.449 Z0.2
G0 F9000 X123.458 Y123.163
G0 X123.768 Y123.473
;TIME_ELAPSED:83.441006
;LAYER:1
M106 S255
;TYPE:SKIN
;MESH:frame.stl
G1 F2400 E50.22403
G1 F1500 X96.233 Y123.472 E50.40719
G1 X96.232 Y96.527 E50.58643
G1 X123.768 Y96.527 E50.7696
G1 X123.768 Y123.473 E50.94885
G0 F9000 X123.458 Y123.163
G0 X100.398 Y119.21
G0 X100.398 Y118.47
G1 F1500 X120.909 Y118.468 E51.08529
G1 X121.021 Y118.305 E51.0866
G1 X121.024 Y113.733 E51.11701
G1 X120.866 Y113.609 E51.11835
G1 X100.4 Y113.612 E51.25449
G1 X100.316 Y113.649 E51.2551
G1 X100.237 Y113.758 E51.256
G1 X100.239 Y118.305 E51.28624
G1 X100.286 Y118.403 E51.28697
G1 X100.398 Y118.47 E51.28783
G0 F9000 X100.398 Y119.21
G0 X99.569 Y119.138
G0 X96.942 Y97.237
G0 X96.432 Y96.8
G1 F1500 X123.568 Y96.8 E51.46834
G0 F9000 X123.568 Y97.2
G1 F1500 X96.432 Y97.2 E51.64885
G0 F9000 X96.432 Y97.6
G1 F1500 X123.568 Y97.6 E51.82936
G0 F9000 X123.568 Y98
G1 F1500 X96.432 Y98 E52.00987
G0 F9000 X96.432 Y98.4
G1 F1500 X123.568 Y98.4 E52.19038
G0 F9000 X123.568 Y98.8
G1 F1500 X96.432 Y98.8 E52.37089
G0 F9000 X96.432 Y99.2
G1 F1500 X123.568 Y99.2 E52.5514
G0 F9000 X123.568 Y99.6
G1 F1500 X96.432 Y99.6 E52.73191
G0 F9000 X96.432 Y100
G1 F1500 X123.568 Y100 E52.91242
G0 F9000 X123.568 Y100.4
G1 F1500 X96.432 Y100.4 E53.09293
G0 F9000 X96.432 Y100.8
G1 F1500 X123.568 Y100.8 E53.27344
G0 F9000 X123.568 Y101.2
G1 F1500 X96.432 Y101.2 E53.45395
G0 F9000 X96.432 Y101.6
G1 F1500 X123.568 Y101.6 E53.63446
G0 F9000 X123.568 Y102
G1 F1500 X96.432 Y102 E53.81497
G0 F9000 X96.432 Y102.4
G1 F1500 X123.568 Y102.4 E53.99548
G0 F9000 X123.568 Y102.8
G1 F1500 X96.432 Y102.8 E54.17599
G0 F9000 X96.432 Y103.2
G1 F1500 X123.568 Y103.2 E54.35649
G0 F9000 X123.568 Y103.6
G1 F1500 X96.432 Y103.6 E54.537
G0 F9000 X96.432 Y104
G1 F1500 X123.568 Y104 E54.71751
G0 F9000 X123.568 Y104.4
G1 F1500 X96.432 Y104.4 E54.89802
G0 F9000 X96.432 Y104.8
G1 F1500 X123.568 Y104.8 E55.07853
G0 F9000 X123.568 Y105.2
G1 F1500 X96.432 Y105.2 E55.25904
G0 F9000 X96.432 Y105.6
G1 F1500 X123.568 Y105.6 E55.43955
G0 F9000 X123.568 Y106
G1 F1500 X96.432 Y106 E55.62006
G0 F9000 X96.432 Y106.4
G1 F1500 X123.568 Y106.4 E55.80057
G0 F9000 X123.568 Y106.8
G1 F1500 X96.432 Y106.8 E55.98108
G0 F9000 X96.432 Y107.2
G1 F1500 X123.568 Y107.2 E56.16159
G0 F9000 X123.568 Y107.6
G1 F1500 X96.432 Y107.6 E56.3421
G0 F9000 X96.432 Y108
G1 F1500 X123.568 Y108 E56.52261
G0 F9000 X123.568 Y108.4
G1 F1500 X96.432 Y108.4 E56.70312
G0 F9000 X96.432 Y108.8
G1 F1500 X123.568 Y108.8 E56.88363
G0 F9000 X123.568 Y109.2
G1 F1500 X96.432 Y109.2 E57.06414
G0 F9000 X96.432 Y109.6
G1 F1500 X123.568 Y109.6 E57.24465
G0 F9000 X123.568 Y110
G1 F1500 X96.432 Y110 E57.42515
G0 F9000 X96.432 Y110.4
G1 F1500 X123.568 Y110.4 E57.60566
G0 F9000 X123.568 Y110.8
G1 F1500 X96.432 Y110.8 E57.78617
G0 F9000 X96.432 Y111.2
G1 F1500 X123.568 Y111.2 E57.96668
G0 F9000 X123.568 Y111.6
G1 F1500 X96.432 Y111.6 E58.14719
G0 F9000 X96.432 Y112
G1 F1500 X123.568 Y112 E58.3277
G0 F9000 X123.568 Y112.4
G1 F1500 X96.432 Y112.4 E58.50821
G0 F9000 X96.432 Y112.8
G1 F1500 X123.568 Y112.8 E58.68872
G0 F9000 X123.568 Y113.2
G1 F1500 X96.432 Y113.2 E58.86923
G0 F9000 X96.432 Y113.6
G1 F1500 X100.114 Y113.6 E58.89372
G0 F9000 X100.037 Y114
G1 F1500 X96.432 Y114 E58.9177
G0 F9000 X96.432 Y114.4
G1 F1500 X100.037 Y114.4 E58.94168
G0 F9000 X100.038 Y114.8
G1 F1500 X96.432 Y114.8 E58.96567
G0 F9000 X96.432 Y115.2
G1 F1500 X100.038 Y115.2 E58.98966
G0 F9000 X100.039 Y115.6
G1 F1500 X96.432 Y115.6 E59.01365
G0 F9000 X96.432 Y116
G1 F1500 X100.039 Y116 E59.03765
G0 F9000 X100.039 Y116.4
G1 F1500 X96.432 Y116.4 E59.06164
G0 F9000 X96.432 Y116.8
G1 F1500 X100.04 Y116.8 E59.08564
G0 F9000 X100.04 Y117.2
G1 F1500 X96.432 Y117.2 E59.10964
G0 F9000 X96.432 Y117.6
G1 F1500 X100.041 Y117.6 E59.13365
G0 F9000 X100.041 Y118
G1 F1500 X96.432 Y118 E59.15766
G0 F9000 X96.432 Y118.4
G1 F1500 X100.07 Y118.4 E59.18186
G0 F9000 X99.497 Y118.4
G0 X96.972 Y118.8
G0 X96.432 Y118.8
G1 F1500 X123.568 Y118.8 E59.36236
G0 F9000 X123.568 Y118.4
G1 F1500 X121.195 Y118.4 E59.37815
G0 F9000 X121.219 Y118
G1 F1500 X123.568 Y118 E59.39378
G0 F9000 X123.568 Y117.6
G1 F1500 X121.219 Y117.6 E59.4094
G0 F9000 X121.22 Y117.2
G1 F1500 X123.568 Y117.2 E59.42502
G0 F9000 X123.568 Y116.8
G1 F1500 X121.221 Y116.8 E59.44063
G0 F9000 X121.221 Y116.4
G1 F1500 X123.568 Y116.4 E59.45624
G0 F9000 X123.568 Y116
G1 F1500 X121.222 Y116 E59.47185
G0 F9000 X121.222 Y115.6
G1 F1500 X123.568 Y115.6 E59.48746
G0 F9000 X123.568 Y115.2
G1 F1500 X121.223 Y115.2 E59.50305
G0 F9000 X121.223 Y114.8
G1 F1500 X123.568 Y114.8 E59.51865
G0 F9000 X123.568 Y114.4
G1 F1500 X121.224 Y114.4 E59.53425
G0 F9000 X121.224 Y114
G1 F1500 X123.568 Y114 E59.54984
G0 F9000 X123.568 Y113.6
G1 F1500 X121.16 Y113.6 E59.56586
G0 F9000 X121.763 Y113.6
G0 X123.028 Y119.2
G0 X123.567 Y119.2
G1 F1500 X96.431 Y119.2 E59.74637
G0 F9000 X96.431 Y119.6
G1 F1500 X123.567 Y119.6 E59.92688
G0 F9000 X123.567 Y120
G1 F1500 X96.431 Y120 E60.10738
G0 F9000 X96.431 Y120.4
G1 F1500 X123.567 Y120.4 E60.28789
G0 F9000 X123.567 Y120.8
G1 F1500 X96.431 Y120.8 E60.4684
G0 F9000 X96.431 Y121.2
G1 F1500 X123.567 Y121.2 E60.64891
G0 F9000 X123.567 Y121.6
G1 F1500 X96.431 Y121.6 E60.82942
G0 F9000 X96.431 Y122
G1 F1500 X123.567 Y122 E61.00993
G0 F9000 X123.567 Y122.4
G1 F1500 X96.431 Y122.4 E61.19044
G0 F9000 X96.431 Y122.8
G1 F1500 X123.567 Y122.8 E61.37095
G0 F9000 X123.567 Y123.2
G1 F1500 X96.431 Y123.2 E61.55146
G0 F9000 X97.154 Y122.433
;MESH:NONMESH
G0 F300 X97.154 Y122.433 Z0.24
G0 F9000 X123.458 Y123.163
G0 X123.768 Y123.473
;TIME_ELAPSED:159.398178
;LAYER:2
;TYPE:SKIN
;MESH:frame.stl
G1 F1500 X96.233 Y123.472 E61.73462
G1 X96.232 Y96.527 E61.91386
G1 X123.768 Y96.527 E62.09703
G1 X123.768 Y123.473 E62.27628
G0 F9000 X123.458 Y123.163
G0 X100.398 Y119.21
G0 X100.398 Y118.47
G1 F1500 X120.909 Y118.468 E62.41272
G1 X121.021 Y118.305 E62.41403
G1 X121.024 Y111.463 E62.45955
G1 X120.866 Y111.339 E62.46088
G1 X100.4 Y111.342 E62.59702
G1 X100.316 Y111.379 E62.59763
G1 X100.237 Y111.488 E62.59853
G1 X100.239 Y118.305 E62.64388
G1 X100.286 Y118.403 E62.6446
G1 X100.398 Y118.47 E62.64547
G0 F9000 X100.398 Y119.21
G0 X96.942 Y122.763
G0 X96.8 Y123.272
G1 F1500 X96.8 Y96.727 E62.82205
G0 F9000 X97.2 Y96.727
G1 F1500 X97.2 Y123.272 E62.99862
G0 F9000 X97.6 Y123.272
G1 F1500 X97.6 Y96.727 E63.1752
G0 F9000 X98 Y96.727
G1 F1500 X98 Y123.272 E63.35178
G0 F9000 X98.4 Y123.272
G1 F1500 X98.4 Y96.727 E63.52836
G0 F9000 X98.8 Y96.727
G1 F1500 X98.8 Y123.272 E63.70494
G0 F9000 X99.2 Y123.272
G1 F1500 X99.2 Y96.727 E63.88151
G0 F9000 X99.6 Y96.727
G1 F1500 X99.6 Y123.272 E64.05809
G0 F9000 X100 Y123.272
G1 F1500 X100 Y96.727 E64.23467
G0 F9000 X100.4 Y96.727
G1 F1500 X100.4 Y111.145 E64.33058
G0 F9000 X100.8 Y111.145
G1 F1500 X100.8 Y96.727 E64.42649
G0 F9000 X101.2 Y96.727
G1 F1500 X101.2 Y111.145 E64.5224
G0 F9000 X101.6 Y111.145
G1 F1500 X101.6 Y96.727 E64.61831
G0 F9000 X102 Y96.727
G1 F1500 X102 Y111.145 E64.71421
G0 F9000 X102.4 Y111.145
G1 F1500 X102.4 Y96.727 E64.81012
G0 F9000 X102.8 Y96.727
G1 F1500 X102.8 Y111.145 E64.90603
G0 F9000 X103.2 Y111.145
G1 F1500 X103.2 Y96.727 E65.00194
G0 F9000 X103.6 Y96.727
G1 F1500 X103.6 Y111.145 E65.09785
G0 F9000 X104 Y111.144
G1 F1500 X104 Y96.727 E65.19375
G0 F9000 X104.4 Y96.727
G1 F1500 X104.4 Y111.144 E65.28965
G0 F9000 X104.8 Y111.144
G1 F1500 X104.8 Y96.727 E65.38556
G0 F9000 X105.2 Y96.727
G1 F1500 X105.2 Y111.144 E65.48146
G0 F9000 X105.6 Y111.144
G1 F1500 X105.6 Y96.727 E65.57736
G0 F9000 X106 Y96.727
G1 F1500 X106 Y111.144 E65.67326
G0 F9000 X106.4 Y111.144
G1 F1500 X106.4 Y96.727 E65.76917
G0 F9000 X106.8 Y96.727
G1 F1500 X106.8 Y111.144 E65.86507
G0 F9000 X107.2 Y111.144
G1 F1500 X107.2 Y96.727 E65.96097
G0 F9000 X107.6 Y96.727
G1 F1500 X107.6 Y111.143 E66.05687
G0 F9000 X108 Y111.143
G1 F1500 X108 Y96.727 E66.15276
G0 F9000 X108.4 Y96.727
G1 F1500 X108.4 Y111.143 E66.24866
G0 F9000 X108.8 Y111.143
G1 F1500 X108.8 Y96.727 E66.34455
G0 F9000 X109.2 Y96.727
G1 F1500 X109.2 Y111.143 E66.44045
G0 F9000 X109.6 Y111.143
G1 F1500 X109.6 Y96.727 E66.53634
G0 F9000 X110 Y96.727
G1 F1500 X110 Y111.143 E66.63224
G0 F9000 X110.4 Y111.143
G1 F1500 X110.4 Y96.727 E66.72814
G0 F9000 X110.8 Y96.727
G1 F1500 X110.8 Y111.142 E66.82402
G0 F9000 X111.2 Y111.142
G1 F1500 X111.2 Y96.727 E66.91991
G0 F9000 X111.6 Y96.727
G1 F1500 X111.6 Y111.142 E67.0158
G0 F9000 X112 Y111.142
G1 F1500 X112 Y96.727 E67.11169
G0 F9000 X112.4 Y96.727
G1 F1500 X112.4 Y111.142 E67.20758
G0 F9000 X112.8 Y111.142
G1 F1500 X112.8 Y96.727 E67.30347
G0 F9000 X113.2 Y96.727
G1 F1500 X113.2 Y111.142 E67.39936
G0 F9000 X113.6 Y111.142
G1 F1500 X113.6 Y96.727 E67.49525
G0 F9000 X114 Y96.727
G1 F1500 X114 Y111.142 E67.59114
G0 F9000 X114.4 Y111.141
G1 F1500 X114.4 Y96.727 E67.68702
G0 F9000 X114.8 Y96.727
G1 F1500 X114.8 Y111.141 E67.7829
G0 F9000 X115.2 Y111.141
G1 F1500 X115.2 Y96.727 E67.87878
G0 F9000 X115.6 Y96.727
G1 F1500 X115.6 Y111.141 E67.97467
G0 F9000 X116 Y111.141
G1 F1500 X116 Y96.727 E68.07055
G0 F9000 X116.4 Y96.727
G1 F1500 X116.4 Y111.141 E68.16643
G0 F9000 X116.8 Y111.141
G1 F1500 X116.8 Y96.727 E68.26231
G0 F9000 X117.2 Y96.727
G1 F1500 X117.2 Y111.141 E68.35819
G0 F9000 X117.6 Y111.14
G1 F1500 X117.6 Y96.727 E68.45407
G0 F9000 X118 Y96.727
G1 F1500 X118 Y111.14 E68.54995
G0 F9000 X118.4 Y111.14
G1 F1500 X118.4 Y96.727 E68.64582
G0 F9000 X118.8 Y96.727
G1 F1500 X118.8 Y111.14 E68.7417
G0 F9000 X119.2 Y111.14
G1 F1500 X119.2 Y96.727 E68.83757
G0 F9000 X119.6 Y96.727
G1 F1500 X119.6 Y111.14 E68.93345
G0 F9000 X120 Y111.14
G1 F1500 X120 Y96.727 E69.02932
G0 F9000 X120.4 Y96.727
G1 F1500 X120.4 Y111.14 E69.1252
G0 F9000 X120.8 Y111.14
G1 F1500 X120.8 Y96.727 E69.22108
G0 F9000 X121.2 Y96.727
G1 F1500 X121.2 Y111.442 E69.31896
G0 F9000 X121.763 Y111.442
G0 X121.763 Y118.386
G0 X121.2 Y118.386
G1 F1500 X121.2 Y123.272 E69.35146
G0 F9000 X120.8 Y123.272
G1 F1500 X120.8 Y118.666 E69.3821
G0 F9000 X120.4 Y118.666
G1 F1500 X120.4 Y123.272 E69.41274
G0 F9000 X120 Y123.272
G1 F1500 X120 Y118.666 E69.44338
G0 F9000 X119.6 Y118.666
G1 F1500 X119.6 Y123.272 E69.47402
G0 F9000 X119.2 Y123.272
G1 F1500 X119.2 Y118.666 E69.50466
G0 F9000 X118.8 Y118.666
G1 F1500 X118.8 Y123.272 E69.5353
G0 F9000 X118.4 Y123.272
G1 F1500 X118.4 Y118.666 E69.56594
G0 F9000 X118 Y118.666
G1 F1500 X118 Y123.272 E69.59658
G0 F9000 X117.6 Y123.272
G1 F1500 X117.6 Y118.666 E69.62722
G0 F9000 X117.2 Y118.666
G1 F1500 X117.2 Y123.272 E69.65785
G0 F9000 X116.8 Y123.272
G1 F1500 X116.8 Y118.666 E69.68849
G0 F9000 X116.4 Y118.666
G1 F1500 X116.4 Y123.272 E69.71913
G0 F9000 X116 Y123.272
G1 F1500 X116 Y118.666 E69.74977
G0 F9000 X115.6 Y118.667
G1 F1500 X115.6 Y123.272 E69.7804
G0 F9000 X115.2 Y123.272
G1 F1500 X115.2 Y118.667 E69.81104
G0 F9000 X114.8 Y118.667
G1 F1500 X114.8 Y123.272 E69.84167
G0 F9000 X114.4 Y123.272
G1 F1500 X114.4 Y118.667 E69.8723
G0 F9000 X114 Y118.667
G1 F1500 X114 Y123.272 E69.90294
G0 F9000 X113.6 Y123.272
G1 F1500 X113.6 Y118.667 E69.93357
