;FLAVOR:Marlin
;TIME:254
;Filament used: 0.0414604m
;Layer height: 0.04
;MINX:100.554
;MINY:100.322
;MINZ:0.16
;MAXX:120.7
;MAXY:118.164
;MAXZ:3.16
;TARGET_MACHINE.NAME:Creality Ender-3 V3 SE
;Generated with Cura_SteamEngine 5.6.0-beta.1
M140 S60
M105
M190 S60
M104 S220
M105
M109 S220
M82 ;absolute extrusion mode
M220 S100 ;Reset Feedrate
M221 S100 ;Reset Flowrate

G28 ;Home

M420 S1; Enable mesh leveling

G92 E0 ;Reset Extruder
G1 Z2.0 F3000 ;Move Z Axis up
G1 X10.1 Y20 Z0.28 F5000.0 ;Move to start position
M109 S[material_print_temperature_layer_0]
G1 X10.1 Y145.0 Z0.28 F1500.0 E15 ;Draw the first line
G1 X10.4 Y145.0 Z0.28 F5000.0 ;Move to side a little
G1 X10.4 Y20 Z0.28 F1500.0 E30 ;Draw the second line
G92 E0  ;Reset Extruder
G1 E-1.0000 F1800 ;Retract a bit
G1 Z2.0 F3000 ;Move Z Axis up
G1 E0.0000 F1800 

G92 E0
G92 E0
G1 F2400 E-1
;LAYER_COUNT:9
;LAYER:0
M107
G1 F300 Z3.16
;MESH:darkInlay.stl
G0 F9000 X100.554 Y118.164 Z3.16
;TYPE:SKIN
G1 F300 Z0.16
G1 F2400 E0
G1 F1500 X100.554 Y118.164
G1 X100.554 Y113.944 E0.11229
G1 X120.7 Y113.944 E0.64833
G1 X120.7 Y118.164 E0.76062
G1 X100.554 Y118.164 E1.29667
G0 F9000 X100.8 Y117.964
G1 F1500 X100.8 Y114.144 E1.39831
G0 F9000 X101.2 Y114.144
G1 F1500 X101.2 Y117.964 E1.49995
G0 F9000 X101.6 Y117.964
G1 F1500 X101.6 Y114.144 E1.6016
G0 F9000 X102 Y114.144
G1 F1500 X102 Y117.964 E1.70324
G0 F9000 X102.4 Y117.964
G1 F1500 X102.4 Y114.144 E1.80488
G0 F9000 X102.8 Y114.144
G1 F1500 X102.8 Y117.964 E1.90652
G0 F9000 X103.2 Y117.964
G1 F1500 X103.2 Y114.144 E2.00817
G0 F9000 X103.6 Y114.144
G1 F1500 X103.6 Y117.964 E2.10981
G0 F9000 X104 Y117.964
G1 F1500 X104 Y114.144 E2.21145
G0 F9000 X104.4 Y114.144
G1 F1500 X104.4 Y117.964 E2.3131
G0 F9000 X104.8 Y117.964
G1 F1500 X104.8 Y114.144 E2.41474
G0 F9000 X105.2 Y114.144
G1 F1500 X105.2 Y117.964 E2.51638
G0 F9000 X105.6 Y117.964
G1 F1500 X105.6 Y114.144 E2.61802
G0 F9000 X106 Y114.144
G1 F1500 X106 Y117.964 E2.71967
G0 F9000 X106.4 Y117.964
G1 F1500 X106.4 Y114.144 E2.82131
G0 F9000 X106.8 Y114.144
G1 F1500 X106.8 Y117.964 E2.92295
G0 F9000 X107.2 Y117.964
G1 F1500 X107.2 Y114.144 E3.0246
G0 F9000 X107.6 Y114.144
G1 F1500 X107.6 Y117.964 E3.12624
G0 F9000 X108 Y117.964
G1 F1500 X108 Y114.144 E3.22788
G0 F9000 X108.4 Y114.144
G1 F1500 X108.4 Y117.964 E3.32953
G0 F9000 X108.8 Y117.964
G1 F1500 X108.8 Y114.144 E3.43117
G0 F9000 X109.2 Y114.144
G1 F1500 X109.2 Y117.964 E3.53281
G0 F9000 X109.6 Y117.964
G1 F1500 X109.6 Y114.144 E3.63445
G0 F9000 X110 Y114.144
G1 F1500 X110 Y117.964 E3.7361
G0 F9000 X110.4 Y117.964
G1 F1500 X110.4 Y114.144 E3.83774
G0 F9000 X110.8 Y114.144
G1 F1500 X110.8 Y117.964 E3.93938
G0 F9000 X111.2 Y117.964
G1 F1500 X111.2 Y114.144 E4.04103
G0 F9000 X111.6 Y114.144
G1 F1500 X111.6 Y117.964 E4.14267
G0 F9000 X112 Y117.964
G1 F1500 X112 Y114.144 E4.24431
G0 F9000 X112.4 Y114.144
G1 F1500 X112.4 Y117.964 E4.34596
G0 F9000 X112.8 Y117.964
G1 F1500 X112.8 Y114.144 E4.4476
G0 F9000 X113.2 Y114.144
G1 F1500 X113.2 Y117.964 E4.54924
G0 F9000 X113.6 Y117.964
G1 F1500 X113.6 Y114.144 E4.65088
G0 F9000 X114 Y114.144
G1 F1500 X114 Y117.964 E4.75253
G0 F9000 X114.4 Y117.964
G1 F1500 X114.4 Y114.144 E4.85417
G0 F9000 X114.8 Y114.144
G1 F1500 X114.8 Y117.964 E4.95581
G0 F9000 X115.2 Y117.964
G1 F1500 X115.2 Y114.144 E5.05746
G0 F9000 X115.6 Y114.144
G1 F1500 X115.6 Y117.964 E5.1591
G0 F9000 X116 Y117.964
G1 F1500 X116 Y114.144 E5.26074
G0 F9000 X116.4 Y114.144
G1 F1500 X116.4 Y117.964 E5.36239
G0 F9000 X116.8 Y117.964
G1 F1500 X116.8 Y114.144 E5.46403
G0 F9000 X117.2 Y114.144
G1 F1500 X117.2 Y117.964 E5.56567
G0 F9000 X117.6 Y117.964
G1 F1500 X117.6 Y114.144 E5.66731
G0 F9000 X118 Y114.144
G1 F1500 X118 Y117.964 E5.76896
G0 F9000 X118.4 Y117.964
G1 F1500 X118.4 Y114.144 E5.8706
G0 F9000 X118.8 Y114.144
G1 F1500 X118.8 Y117.964 E5.97224
G0 F9000 X119.2 Y117.964
G1 F1500 X119.2 Y114.144 E6.07389
G0 F9000 X119.6 Y114.144
G1 F1500 X119.6 Y117.964 E6.17553
G0 F9000 X120 Y117.964
G1 F1500 X120 Y114.144 E6.27717
G0 F9000 X120.4 Y114.144
G1 F1500 X120.4 Y117.964 E6.37881
G0 F9000 X119.66 Y117.242
;MESH:NONMESH
G0 F300 X119.66 Y117.242 Z0.2
G0 F9000 X100.864 Y117.854
G0 X100.554 Y118.164
;TIME_ELAPSED:15.959569
;LAYER:1
M106 S255
;TYPE:SKIN
;MESH:darkInlay.stl
G1 F1500 X100.554 Y111.674 E6.42199
G1 X120.7 Y111.674 E6.556
G1 X120.7 Y118.164 E6.59917
G1 X100.554 Y118.164 E6.73318
G0 F9000 X100.864 Y117.854
G0 X101.264 Y112.383
G0 X100.754 Y112
G1 F1500 X120.5 Y112 E6.86453
G0 F9000 X120.5 Y112.4
G1 F1500 X100.754 Y112.4 E6.99588
G0 F9000 X100.754 Y112.8
G1 F1500 X120.5 Y112.8 E7.12723
G0 F9000 X120.5 Y113.2
G1 F1500 X100.754 Y113.2 E7.25859
G0 F9000 X100.754 Y113.6
G1 F1500 X120.5 Y113.6 E7.38994
G0 F9000 X120.5 Y114
G1 F1500 X100.754 Y114 E7.52129
G0 F9000 X100.754 Y114.4
G1 F1500 X120.5 Y114.4 E7.65264
G0 F9000 X120.5 Y114.8
G1 F1500 X100.754 Y114.8 E7.78399
G0 F9000 X100.754 Y115.2
G1 F1500 X120.5 Y115.2 E7.91534
G0 F9000 X120.5 Y115.6
G1 F1500 X100.754 Y115.6 E8.04669
G0 F9000 X100.754 Y116
G1 F1500 X120.5 Y116 E8.17804
G0 F9000 X120.5 Y116.4
G1 F1500 X100.754 Y116.4 E8.30939
G0 F9000 X100.754 Y116.8
G1 F1500 X120.5 Y116.8 E8.44074
G0 F9000 X120.5 Y117.2
G1 F1500 X100.754 Y117.2 E8.57209
G0 F9000 X100.754 Y117.6
G1 F1500 X120.5 Y117.6 E8.70345
G0 F9000 X119.66 Y117.242
;MESH:NONMESH
G0 F300 X119.66 Y117.242 Z0.24
G0 F9000 X100.864 Y117.854
G0 X100.555 Y118.164
;TIME_ELAPSED:31.799919
;LAYER:2
;TYPE:SKIN
;MESH:darkInlay.stl
G1 F1500 X100.555 Y109.404 E8.76172
G1 X120.7 Y109.404 E8.89572
G1 X120.7 Y118.164 E8.95399
G1 X100.555 Y118.164 E9.088
G0 F9000 X100.864 Y117.854
G0 X101.264 Y110.113
G0 X100.8 Y109.604
G1 F1500 X100.8 Y117.964 E9.14361
G0 F9000 X101.2 Y117.964
G1 F1500 X101.2 Y109.604 E9.19922
G0 F9000 X101.6 Y109.604
G1 F1500 X101.6 Y117.964 E9.25483
G0 F9000 X102 Y117.964
G1 F1500 X102 Y109.604 E9.31044
G0 F9000 X102.4 Y109.604
G1 F1500 X102.4 Y117.964 E9.36605
G0 F9000 X102.8 Y117.964
G1 F1500 X102.8 Y109.604 E9.42166
G0 F9000 X103.2 Y109.604
G1 F1500 X103.2 Y117.964 E9.47728
G0 F9000 X103.6 Y117.964
G1 F1500 X103.6 Y109.604 E9.53289
G0 F9000 X104 Y109.604
G1 F1500 X104 Y117.964 E9.5885
G0 F9000 X104.4 Y117.964
G1 F1500 X104.4 Y109.604 E9.64411
G0 F9000 X104.8 Y109.604
G1 F1500 X104.8 Y117.964 E9.69972
G0 F9000 X105.2 Y117.964
G1 F1500 X105.2 Y109.604 E9.75533
G0 F9000 X105.6 Y109.604
G1 F1500 X105.6 Y117.964 E9.81094
G0 F9000 X106 Y117.964
G1 F1500 X106 Y109.604 E9.86655
G0 F9000 X106.4 Y109.604
G1 F1500 X106.4 Y117.964 E9.92216
G0 F9000 X106.8 Y117.964
G1 F1500 X106.8 Y109.604 E9.97777
G0 F9000 X107.2 Y109.604
G1 F1500 X107.2 Y117.964 E10.03339
G0 F9000 X107.6 Y117.964
G1 F1500 X107.6 Y109.604 E10.089
G0 F9000 X108 Y109.604
G1 F1500 X108 Y117.964 E10.14461
G0 F9000 X108.4 Y117.964
G1 F1500 X108.4 Y109.604 E10.20022
G0 F9000 X108.8 Y109.604
G1 F1500 X108.8 Y117.964 E10.25583
G0 F9000 X109.2 Y117.964
G1 F1500 X109.2 Y109.604 E10.31144
G0 F9000 X109.6 Y109.604
G1 F1500 X109.6 Y117.964 E10.36705
G0 F9000 X110 Y117.964
G1 F1500 X110 Y109.604 E10.42266
G0 F9000 X110.4 Y109.604
G1 F1500 X110.4 Y117.964 E10.47827
G0 F9000 X110.8 Y117.964
G1 F1500 X110.8 Y109.604 E10.53388
G0 F9000 X111.2 Y109.604
G1 F1500 X111.2 Y117.964 E10.58949
G0 F9000 X111.6 Y117.964
G1 F1500 X111.6 Y109.604 E10.64511
G0 F9000 X112 Y109.604
G1 F1500 X112 Y117.964 E10.70072
G0 F9000 X112.4 Y117.964
G1 F1500 X112.4 Y109.604 E10.75633
G0 F9000 X112.8 Y109.604
G1 F1500 X112.8 Y117.964 E10.81194
G0 F9000 X113.2 Y117.964
G1 F1500 X113.2 Y109.604 E10.86755
G0 F9000 X113.6 Y109.604
G1 F1500 X113.6 Y117.964 E10.92316
G0 F9000 X114 Y117.964
G1 F1500 X114 Y109.604 E10.97877
G0 F9000 X114.4 Y109.604
G1 F1500 X114.4 Y117.964 E11.03438
G0 F9000 X114.8 Y117.964
G1 F1500 X114.8 Y109.604 E11.08999
G0 F9000 X115.2 Y109.604
G1 F1500 X115.2 Y117.964 E11.1456
G0 F9000 X115.6 Y117.964
G1 F1500 X115.6 Y109.604 E11.20122
G0 F9000 X116 Y109.604
G1 F1500 X116 Y117.964 E11.25683
G0 F9000 X116.4 Y117.964
G1 F1500 X116.4 Y109.604 E11.31244
G0 F9000 X116.8 Y109.604
G1 F1500 X116.8 Y117.964 E11.36805
G0 F9000 X117.2 Y117.964
G1 F1500 X117.2 Y109.604 E11.42366
G0 F9000 X117.6 Y109.604
G1 F1500 X117.6 Y117.964 E11.47927
G0 F9000 X118 Y117.964
G1 F1500 X118 Y109.604 E11.53488
G0 F9000 X118.4 Y109.604
G1 F1500 X118.4 Y117.964 E11.59049
G0 F9000 X118.8 Y117.964
G1 F1500 X118.8 Y109.604 E11.6461
G0 F9000 X119.2 Y109.604
G1 F1500 X119.2 Y117.964 E11.70171
G0 F9000 X119.6 Y117.964
G1 F1500 X119.6 Y109.604 E11.75732
G0 F9000 X120 Y109.604
G1 F1500 X120 Y117.964 E11.81294
G0 F9000 X120.4 Y117.964
G1 F1500 X120.4 Y109.604 E11.86855
G0 F9000 X119.66 Y110.325
;MESH:NONMESH
G0 F300 X119.66 Y110.325 Z0.28
G0 F9000 X100.864 Y117.854
G0 X100.555 Y118.164
;TIME_ELAPSED:55.227610
;LAYER:3
;TYPE:SKIN
;MESH:darkInlay.stl
G1 F1500 X100.555 Y109.404 E11.92682
G1 X120.7 Y109.404 E12.06082
G1 X120.7 Y118.164 E12.1191
G1 X100.555 Y118.164 E12.2531
G0 F9000 X100.864 Y117.854
G0 X101.264 Y110.113
G0 X100.755 Y110
G1 F1500 X120.5 Y110 E12.38444
G0 F9000 X120.5 Y110.4
G1 F1500 X100.755 Y110.4 E12.51579
G0 F9000 X100.755 Y110.8
G1 F1500 X120.5 Y110.8 E12.64713
G0 F9000 X120.5 Y111.2
G1 F1500 X100.755 Y111.2 E12.77848
G0 F9000 X100.755 Y111.6
G1 F1500 X120.5 Y111.6 E12.90982
G0 F9000 X120.5 Y112
G1 F1500 X100.755 Y112 E13.04117
G0 F9000 X100.755 Y112.4
G1 F1500 X120.5 Y112.4 E13.17251
G0 F9000 X120.5 Y112.8
G1 F1500 X100.755 Y112.8 E13.30385
G0 F9000 X100.755 Y113.2
G1 F1500 X120.5 Y113.2 E13.4352
G0 F9000 X120.5 Y113.6
G1 F1500 X100.755 Y113.6 E13.56654
G0 F9000 X100.755 Y114
G1 F1500 X120.5 Y114 E13.69789
G0 F9000 X120.5 Y114.4
G1 F1500 X100.755 Y114.4 E13.82923
G0 F9000 X100.755 Y114.8
G1 F1500 X120.5 Y114.8 E13.96058
G0 F9000 X120.5 Y115.2
G1 F1500 X100.755 Y115.2 E14.09192
G0 F9000 X100.755 Y115.6
G1 F1500 X120.5 Y115.6 E14.22326
G0 F9000 X120.5 Y116
G1 F1500 X100.755 Y116 E14.35461
G0 F9000 X100.755 Y116.4
G1 F1500 X120.5 Y116.4 E14.48595
G0 F9000 X120.5 Y116.8
G1 F1500 X100.755 Y116.8 E14.6173
G0 F9000 X100.755 Y117.2
G1 F1500 X120.5 Y117.2 E14.74864
G0 F9000 X120.5 Y117.6
G1 F1500 X100.755 Y117.6 E14.87999
G0 F9000 X101.476 Y117.124
;MESH:NONMESH
G0 F300 X101.476 Y117.124 Z0.32
G0 F9000 X100.864 Y117.854
G0 X100.554 Y118.164
;TIME_ELAPSED:75.292003
;LAYER:4
;TYPE:SKIN
;MESH:darkInlay.stl
G1 F1500 X100.554 Y107.133 E14.95336
G1 X120.7 Y107.133 E15.08738
G1 X120.7 Y118.163 E15.16075
G1 X100.554 Y118.164 E15.29476
G0 F9000 X100.864 Y117.854
G0 X101.264 Y107.843
G0 X100.8 Y107.333
G1 F1500 X100.8 Y117.964 E15.36548
G0 F9000 X101.2 Y117.964
G1 F1500 X101.2 Y107.333 E15.43619
G0 F9000 X101.6 Y107.333
G1 F1500 X101.6 Y117.964 E15.50691
G0 F9000 X102 Y117.964
G1 F1500 X102 Y107.333 E15.57763
G0 F9000 X102.4 Y107.333
G1 F1500 X102.4 Y117.964 E15.64835
G0 F9000 X102.8 Y117.964
G1 F1500 X102.8 Y107.333 E15.71907
G0 F9000 X103.2 Y107.333
G1 F1500 X103.2 Y117.964 E15.78978
G0 F9000 X103.6 Y117.964
G1 F1500 X103.6 Y107.333 E15.8605
G0 F9000 X104 Y107.333
G1 F1500 X104 Y117.964 E15.93122
G0 F9000 X104.4 Y117.964
G1 F1500 X104.4 Y107.333 E16.00194
G0 F9000 X104.8 Y107.333
G1 F1500 X104.8 Y117.964 E16.07265
G0 F9000 X105.2 Y117.964
G1 F1500 X105.2 Y107.333 E16.14337
G0 F9000 X105.6 Y107.333
G1 F1500 X105.6 Y117.964 E16.21409
G0 F9000 X106 Y117.964
G1 F1500 X106 Y107.333 E16.28481
G0 F9000 X106.4 Y107.333
G1 F1500 X106.4 Y117.964 E16.35553
G0 F9000 X106.8 Y117.964
G1 F1500 X106.8 Y107.333 E16.42624
G0 F9000 X107.2 Y107.333
G1 F1500 X107.2 Y117.964 E16.49696
G0 F9000 X107.6 Y117.964
G1 F1500 X107.6 Y107.333 E16.56768
G0 F9000 X108 Y107.333
G1 F1500 X108 Y117.964 E16.6384
G0 F9000 X108.4 Y117.964
G1 F1500 X108.4 Y107.333 E16.70911
G0 F9000 X108.8 Y107.333
G1 F1500 X108.8 Y117.964 E16.77983
G0 F9000 X109.2 Y117.964
G1 F1500 X109.2 Y107.333 E16.85055
G0 F9000 X109.6 Y107.333
G1 F1500 X109.6 Y117.964 E16.92127
G0 F9000 X110 Y117.964
G1 F1500 X110 Y107.333 E16.99198
G0 F9000 X110.4 Y107.333
G1 F1500 X110.4 Y117.964 E17.0627
G0 F9000 X110.8 Y117.964
G1 F1500 X110.8 Y107.333 E17.13342
G0 F9000 X111.2 Y107.333
G1 F1500 X111.2 Y117.964 E17.20414
G0 F9000 X111.6 Y117.964
G1 F1500 X111.6 Y107.333 E17.27486
G0 F9000 X112 Y107.333
G1 F1500 X112 Y117.964 E17.34557
G0 F9000 X112.4 Y117.964
G1 F1500 X112.4 Y107.333 E17.41629
G0 F9000 X112.8 Y107.333
G1 F1500 X112.8 Y117.964 E17.48701
G0 F9000 X113.2 Y117.964
G1 F1500 X113.2 Y107.333 E17.55773
G0 F9000 X113.6 Y107.333
G1 F1500 X113.6 Y117.964 E17.62844
G0 F9000 X114 Y117.964
G1 F1500 X114 Y107.333 E17.69916
G0 F9000 X114.4 Y107.333
G1 F1500 X114.4 Y117.964 E17.76988
G0 F9000 X114.8 Y117.964
G1 F1500 X114.8 Y107.333 E17.8406
G0 F9000 X115.2 Y107.333
G1 F1500 X115.2 Y117.964 E17.91131
G0 F9000 X115.6 Y117.964
G1 F1500 X115.6 Y107.333 E17.98203
G0 F9000 X116 Y107.333
G1 F1500 X116 Y117.964 E18.05275
G0 F9000 X116.4 Y117.964
G1 F1500 X116.4 Y107.333 E18.12347
G0 F9000 X116.8 Y107.333
G1 F1500 X116.8 Y117.964 E18.19419
G0 F9000 X117.2 Y117.964
G1 F1500 X117.2 Y107.333 E18.2649
G0 F9000 X117.6 Y107.333
G1 F1500 X117.6 Y117.964 E18.33562
G0 F9000 X118 Y117.964
G1 F1500 X118 Y107.333 E18.40634
G0 F9000 X118.4 Y107.333
G1 F1500 X118.4 Y117.964 E18.47706
G0 F9000 X118.8 Y117.964
G1 F1500 X118.8 Y107.333 E18.54777
G0 F9000 X119.2 Y107.333
G1 F1500 X119.2 Y117.964 E18.61849
G0 F9000 X119.6 Y117.964
G1 F1500 X119.6 Y107.333 E18.68921
G0 F9000 X120 Y107.333
G1 F1500 X120 Y117.964 E18.75993
G0 F9000 X120.4 Y117.964
G1 F1500 X120.4 Y107.333 E18.83064
G0 F9000 X119.66 Y108.055
;MESH:NONMESH
G0 F300 X119.66 Y108.055 Z0.36
G0 F9000 X100.864 Y117.854
G0 X100.554 Y118.164
;TIME_ELAPSED:103.486192
;LAYER:5
;TYPE:SKIN
;MESH:darkInlay.stl
G1 F1500 X100.554 Y104.864 E18.91912
G1 X120.7 Y104.864 E19.05313
G1 X120.7 Y118.164 E19.1416
G1 X100.554 Y118.164 E19.27561
G0 F9000 X100.864 Y117.854
G0 X101.264 Y105.573
G0 X100.754 Y105.2
G1 F1500 X120.5 Y105.2 E19.40696
G0 F9000 X120.5 Y105.6
G1 F1500 X100.754 Y105.6 E19.53831
G0 F9000 X100.754 Y106
G1 F1500 X120.5 Y106 E19.66966
G0 F9000 X120.5 Y106.4
G1 F1500 X100.754 Y106.4 E19.80102
G0 F9000 X100.754 Y106.8
G1 F1500 X120.5 Y106.8 E19.93237
G0 F9000 X120.5 Y107.2
G1 F1500 X100.754 Y107.2 E20.06372
G0 F9000 X100.754 Y107.6
G1 F1500 X120.5 Y107.6 E20.19507
G0 F9000 X120.5 Y108
G1 F1500 X100.754 Y108 E20.32642
G0 F9000 X100.754 Y108.4
G1 F1500 X120.5 Y108.4 E20.45777
G0 F9000 X120.5 Y108.8
G1 F1500 X100.754 Y108.8 E20.58912
G0 F9000 X100.754 Y109.2
G1 F1500 X120.5 Y109.2 E20.72047
G0 F9000 X120.5 Y109.6
G1 F1500 X100.754 Y109.6 E20.85182
G0 F9000 X100.754 Y110
G1 F1500 X120.5 Y110 E20.98317
G0 F9000 X120.5 Y110.4
G1 F1500 X100.754 Y110.4 E21.11452
G0 F9000 X100.754 Y110.8
G1 F1500 X120.5 Y110.8 E21.24588
G0 F9000 X120.5 Y111.2
G1 F1500 X100.754 Y111.2 E21.37723
G0 F9000 X100.754 Y111.6
G1 F1500 X120.5 Y111.6 E21.50858
G0 F9000 X120.5 Y112
G1 F1500 X100.754 Y112 E21.63993
G0 F9000 X100.754 Y112.4
G1 F1500 X120.5 Y112.4 E21.77128
G0 F9000 X120.5 Y112.8
G1 F1500 X100.754 Y112.8 E21.90263
G0 F9000 X100.754 Y113.2
G1 F1500 X120.5 Y113.2 E22.03398
G0 F9000 X120.5 Y113.6
G1 F1500 X100.754 Y113.6 E22.16533
G0 F9000 X100.754 Y114
G1 F1500 X120.5 Y114 E22.29668
G0 F9000 X120.5 Y114.4
G1 F1500 X100.754 Y114.4 E22.42803
G0 F9000 X100.754 Y114.8
G1 F1500 X120.5 Y114.8 E22.55939
G0 F9000 X120.5 Y115.2
G1 F1500 X100.754 Y115.2 E22.69074
G0 F9000 X100.754 Y115.6
G1 F1500 X120.5 Y115.6 E22.82209
G0 F9000 X120.5 Y116
G1 F1500 X100.754 Y116 E22.95344
G0 F9000 X100.754 Y116.4
G1 F1500 X120.5 Y116.4 E23.08479
G0 F9000 X120.5 Y116.8
G1 F1500 X100.754 Y116.8 E23.21614
G0 F9000 X100.754 Y117.2
G1 F1500 X120.5 Y117.2 E23.34749
G0 F9000 X120.5 Y117.6
G1 F1500 X100.754 Y117.6 E23.47884
G0 F9000 X101.476 Y117.124
;MESH:NONMESH
G0 F300 X101.476 Y117.124 Z0.4
G0 F9000 X100.864 Y117.854
G0 X100.554 Y118.164
;TIME_ELAPSED:134.309665
;LAYER:6
;TYPE:SKIN
;MESH:darkInlay.stl
G1 F1500 X100.554 Y102.592 E23.58243
G1 X120.7 Y102.592 E23.71644
G1 X120.7 Y118.164 E23.82002
G1 X100.554 Y118.164 E23.95404
G0 F9000 X100.8 Y117.964
G1 F1500 X100.8 Y102.792 E24.05496
G0 F9000 X101.2 Y102.792
G1 F1500 X101.2 Y117.964 E24.15588
G0 F9000 X101.6 Y117.964
G1 F1500 X101.6 Y102.792 E24.25681
