;FLAVOR:Marlin
;TIME:242
;Filament used: 0.0375082m
;Layer height: 0.04
;MINX:100.556
;MINY:104.685
;MINZ:0.16
;MAXX:119.423
;MAXY:113.446
;MAXZ:3.16
;TARGET_MACHINE.NAME:Creality Ender-3 V3 SE
;Generated with Cura_SteamEngine 5.6.0-beta.1
M140 S60
M105
M190 S60
M104 S220
M105
M109 S220
M82 ;absolute extrusion mode
M220 S100 ;Reset Feedrate
M221 S100 ;Reset Flowrate

G28 ;Home

M420 S1; Enable mesh leveling

G92 E0 ;Reset Extruder
G1 Z2.0 F3000 ;Move Z Axis up
G1 X10.1 Y20 Z0.28 F5000.0 ;Move to start position
M109 S[material_print_temperature_layer_0]
G1 X10.1 Y145.0 Z0.28 F1500.0 E15 ;Draw the first line
G1 X10.4 Y145.0 Z0.28 F5000.0 ;Move to side a little
G1 X10.4 Y20 Z0.28 F1500.0 E30 ;Draw the second line
G92 E0  ;Reset Extruder
G1 E-1.0000 F1800 ;Retract a bit
G1 Z2.0 F3000 ;Move Z Axis up
G1 E0.0000 F1800 

G92 E0
G92 E0
G1 F2400 E-1
;LAYER_COUNT:18
;LAYER:0
M107
G1 F300 Z3.16
;MESH:lightTop.stl
G0 F9000 X119.423 Y113.446 Z3.16
;TYPE:SKIN
G1 F300 Z0.16
G1 F2400 E0
G1 F1500 X100.556 Y113.446 E0.50202
G1 X100.556 Y104.686 E0.7351
G1 X119.423 Y104.685 E1.23712
G1 X119.423 Y113.446 E1.47023
G0 F9000 X119.113 Y113.136
G0 X118.713 Y105.395
G0 X119.2 Y104.885
G1 F1500 X119.2 Y113.246 E1.6927
G0 F9000 X118.8 Y113.246
G1 F1500 X118.8 Y104.885 E1.91517
G0 F9000 X118.4 Y104.885
G1 F1500 X118.4 Y113.246 E2.13764
G0 F9000 X118 Y113.246
G1 F1500 X118 Y104.885 E2.36011
G0 F9000 X117.6 Y104.885
G1 F1500 X117.6 Y113.246 E2.58258
G0 F9000 X117.2 Y113.246
G1 F1500 X117.2 Y104.885 E2.80505
G0 F9000 X116.8 Y104.885
G1 F1500 X116.8 Y113.246 E3.02752
G0 F9000 X116.4 Y113.246
G1 F1500 X116.4 Y104.885 E3.24999
G0 F9000 X116 Y104.885
G1 F1500 X116 Y113.246 E3.47246
G0 F9000 X115.6 Y113.246
G1 F1500 X115.6 Y104.885 E3.69493
G0 F9000 X115.2 Y104.885
G1 F1500 X115.2 Y113.246 E3.91741
G0 F9000 X114.8 Y113.246
G1 F1500 X114.8 Y104.885 E4.13988
G0 F9000 X114.4 Y104.885
G1 F1500 X114.4 Y113.246 E4.36235
G0 F9000 X114 Y113.246
G1 F1500 X114 Y104.885 E4.58482
G0 F9000 X113.6 Y104.885
G1 F1500 X113.6 Y113.246 E4.80729
G0 F9000 X113.2 Y113.246
G1 F1500 X113.2 Y104.885 E5.02976
G0 F9000 X112.8 Y104.885
G1 F1500 X112.8 Y113.246 E5.25223
G0 F9000 X112.4 Y113.246
G1 F1500 X112.4 Y104.885 E5.4747
G0 F9000 X112 Y104.885
G1 F1500 X112 Y113.246 E5.69717
G0 F9000 X111.6 Y113.246
G1 F1500 X111.6 Y104.885 E5.91964
G0 F9000 X111.2 Y104.885
G1 F1500 X111.2 Y113.246 E6.14211
G0 F9000 X110.8 Y113.246
G1 F1500 X110.8 Y104.885 E6.36458
G0 F9000 X110.4 Y104.885
G1 F1500 X110.4 Y113.246 E6.58705
G0 F9000 X110 Y113.246
G1 F1500 X110 Y104.885 E6.80952
G0 F9000 X109.6 Y104.885
G1 F1500 X109.6 Y113.246 E7.03199
G0 F9000 X109.2 Y113.246
G1 F1500 X109.2 Y104.885 E7.25446
G0 F9000 X108.8 Y104.885
G1 F1500 X108.8 Y113.246 E7.47693
G0 F9000 X108.4 Y113.246
G1 F1500 X108.4 Y104.885 E7.6994
G0 F9000 X108 Y104.885
G1 F1500 X108 Y113.246 E7.92187
G0 F9000 X107.6 Y113.246
G1 F1500 X107.6 Y104.885 E8.14434
G0 F9000 X107.2 Y104.885
G1 F1500 X107.2 Y113.246 E8.36681
G0 F9000 X106.8 Y113.246
G1 F1500 X106.8 Y104.885 E8.58928
G0 F9000 X106.4 Y104.885
G1 F1500 X106.4 Y113.246 E8.81175
G0 F9000 X106 Y113.246
G1 F1500 X106 Y104.885 E9.03422
G0 F9000 X105.6 Y104.885
G1 F1500 X105.6 Y113.246 E9.25669
G0 F9000 X105.2 Y113.246
G1 F1500 X105.2 Y104.885 E9.47917
G0 F9000 X104.8 Y104.885
G1 F1500 X104.8 Y113.246 E9.70164
G0 F9000 X104.4 Y113.246
G1 F1500 X104.4 Y104.885 E9.92411
G0 F9000 X104 Y104.885
G1 F1500 X104 Y113.246 E10.14658
G0 F9000 X103.6 Y113.246
G1 F1500 X103.6 Y104.885 E10.36905
G0 F9000 X103.2 Y104.885
G1 F1500 X103.2 Y113.246 E10.59152
G0 F9000 X102.8 Y113.246
G1 F1500 X102.8 Y104.885 E10.81399
G0 F9000 X102.4 Y104.885
G1 F1500 X102.4 Y113.246 E11.03646
G0 F9000 X102 Y113.246
G1 F1500 X102 Y104.885 E11.25893
G0 F9000 X101.6 Y104.885
G1 F1500 X101.6 Y113.246 E11.4814
G0 F9000 X101.2 Y113.246
G1 F1500 X101.2 Y104.885 E11.70387
G0 F9000 X100.8 Y104.885
G1 F1500 X100.8 Y113.246 E11.92634
G0 F9000 X101.478 Y112.406
;MESH:NONMESH
G0 F300 X101.478 Y112.406 Z0.2
G0 F9000 X118.139 Y112.706
G0 X118.139 Y113.445
;TIME_ELAPSED:24.413627
;LAYER:1
M106 S255
;TYPE:SKIN
;MESH:lightTop.stl
G1 F1500 X100.556 Y113.446 E12.0433
G1 X100.556 Y104.685 E12.10158
G1 X118.139 Y104.685 E12.21854
G1 X118.139 Y113.445 E12.27681
G0 F9000 X117.829 Y113.136
G0 X101.266 Y112.736
G0 X100.756 Y113.2
G1 F1500 X117.939 Y113.2 E12.39112
G0 F9000 X117.939 Y112.8
G1 F1500 X100.756 Y112.8 E12.50542
G0 F9000 X100.756 Y112.4
G1 F1500 X117.939 Y112.4 E12.61972
G0 F9000 X117.939 Y112
G1 F1500 X100.756 Y112 E12.73402
G0 F9000 X100.756 Y111.6
G1 F1500 X117.939 Y111.6 E12.84832
G0 F9000 X117.939 Y111.2
G1 F1500 X100.756 Y111.2 E12.96263
G0 F9000 X100.756 Y110.8
G1 F1500 X117.939 Y110.8 E13.07693
G0 F9000 X117.939 Y110.4
G1 F1500 X100.756 Y110.4 E13.19123
G0 F9000 X100.756 Y110
G1 F1500 X117.939 Y110 E13.30553
G0 F9000 X117.939 Y109.6
G1 F1500 X100.756 Y109.6 E13.41983
G0 F9000 X100.756 Y109.2
G1 F1500 X117.939 Y109.2 E13.53413
G0 F9000 X117.939 Y108.8
G1 F1500 X100.756 Y108.8 E13.64844
G0 F9000 X100.756 Y108.4
G1 F1500 X117.939 Y108.4 E13.76274
G0 F9000 X117.939 Y108
G1 F1500 X100.756 Y108 E13.87704
G0 F9000 X100.756 Y107.6
G1 F1500 X117.939 Y107.6 E13.99134
G0 F9000 X117.939 Y107.2
G1 F1500 X100.756 Y107.2 E14.10564
G0 F9000 X100.756 Y106.8
G1 F1500 X117.939 Y106.8 E14.21995
G0 F9000 X117.939 Y106.4
G1 F1500 X100.756 Y106.4 E14.33425
G0 F9000 X100.756 Y106
G1 F1500 X117.939 Y106 E14.44855
G0 F9000 X117.939 Y105.6
G1 F1500 X100.756 Y105.6 E14.56285
G0 F9000 X100.756 Y105.2
G1 F1500 X117.939 Y105.2 E14.67715
G0 F9000 X117.099 Y105.607
;MESH:NONMESH
G0 F300 X117.099 Y105.607 Z0.24
G0 F9000 X116.856 Y112.706
G0 X116.856 Y113.446
;TIME_ELAPSED:43.238246
;LAYER:2
;TYPE:SKIN
;MESH:lightTop.stl
G1 F1500 X100.557 Y113.446 E14.78557
G1 X100.557 Y104.686 E14.84385
G1 X116.856 Y104.686 E14.95227
G1 X116.856 Y113.446 E15.01054
G0 F9000 X116.546 Y113.136
G0 X116.146 Y105.395
G0 X116.4 Y104.886
G1 F1500 X116.4 Y113.246 E15.06615
G0 F9000 X116 Y113.246
G1 F1500 X116 Y104.886 E15.12176
G0 F9000 X115.6 Y104.886
G1 F1500 X115.6 Y113.246 E15.17737
G0 F9000 X115.2 Y113.246
G1 F1500 X115.2 Y104.886 E15.23298
G0 F9000 X114.8 Y104.886
G1 F1500 X114.8 Y113.246 E15.28859
G0 F9000 X114.4 Y113.246
G1 F1500 X114.4 Y104.886 E15.3442
G0 F9000 X114 Y104.886
G1 F1500 X114 Y113.246 E15.39982
G0 F9000 X113.6 Y113.246
G1 F1500 X113.6 Y104.886 E15.45543
G0 F9000 X113.2 Y104.886
G1 F1500 X113.2 Y113.246 E15.51104
G0 F9000 X112.8 Y113.246
G1 F1500 X112.8 Y104.886 E15.56665
G0 F9000 X112.4 Y104.886
G1 F1500 X112.4 Y113.246 E15.62226
G0 F9000 X112 Y113.246
G1 F1500 X112 Y104.886 E15.67787
G0 F9000 X111.6 Y104.886
G1 F1500 X111.6 Y113.246 E15.73348
G0 F9000 X111.2 Y113.246
G1 F1500 X111.2 Y104.886 E15.78909
G0 F9000 X110.8 Y104.886
G1 F1500 X110.8 Y113.246 E15.8447
G0 F9000 X110.4 Y113.246
G1 F1500 X110.4 Y104.886 E15.90031
G0 F9000 X110 Y104.886
G1 F1500 X110 Y113.246 E15.95592
G0 F9000 X109.6 Y113.246
G1 F1500 X109.6 Y104.886 E16.01154
G0 F9000 X109.2 Y104.886
G1 F1500 X109.2 Y113.246 E16.06715
G0 F9000 X108.8 Y113.246
G1 F1500 X108.8 Y104.886 E16.12276
G0 F9000 X108.4 Y104.886
G1 F1500 X108.4 Y113.246 E16.17837
G0 F9000 X108 Y113.246
G1 F1500 X108 Y104.886 E16.23398
G0 F9000 X107.6 Y104.886
G1 F1500 X107.6 Y113.246 E16.28959
G0 F9000 X107.2 Y113.246
G1 F1500 X107.2 Y104.886 E16.3452
G0 F9000 X106.8 Y104.886
G1 F1500 X106.8 Y113.246 E16.40081
G0 F9000 X106.4 Y113.246
G1 F1500 X106.4 Y104.886 E16.45642
G0 F9000 X106 Y104.886
G1 F1500 X106 Y113.246 E16.51203
G0 F9000 X105.6 Y113.246
G1 F1500 X105.6 Y104.886 E16.56764
G0 F9000 X105.2 Y104.886
G1 F1500 X105.2 Y113.246 E16.62326
G0 F9000 X104.8 Y113.246
G1 F1500 X104.8 Y104.886 E16.67887
G0 F9000 X104.4 Y104.886
G1 F1500 X104.4 Y113.246 E16.73448
G0 F9000 X104 Y113.246
G1 F1500 X104 Y104.886 E16.79009
G0 F9000 X103.6 Y104.886
G1 F1500 X103.6 Y113.246 E16.8457
G0 F9000 X103.2 Y113.246
G1 F1500 X103.2 Y104.886 E16.90131
G0 F9000 X102.8 Y104.886
G1 F1500 X102.8 Y113.246 E16.95692
G0 F9000 X102.4 Y113.246
G1 F1500 X102.4 Y104.886 E17.01253
G0 F9000 X102 Y104.886
G1 F1500 X102 Y113.246 E17.06814
G0 F9000 X101.6 Y113.246
G1 F1500 X101.6 Y104.886 E17.12375
G0 F9000 X101.2 Y104.886
G1 F1500 X101.2 Y113.246 E17.17937
G0 F9000 X100.8 Y113.246
G1 F1500 X100.8 Y104.886 E17.23498
G0 F9000 X101.596 Y105.607
;MESH:NONMESH
G0 F300 X101.596 Y105.607 Z0.28
G0 F9000 X115.585 Y112.706
G0 X115.585 Y113.446
;TIME_ELAPSED:62.277114
;LAYER:3
;TYPE:SKIN
;MESH:lightTop.stl
G1 F1500 X100.556 Y113.446 E17.33495
G1 X100.556 Y104.686 E17.39322
G1 X115.585 Y104.686 E17.49319
G1 X115.585 Y113.446 E17.55147
G0 F9000 X115.275 Y113.136
G0 X101.266 Y112.736
G0 X100.756 Y113.2
G1 F1500 X115.385 Y113.2 E17.64878
G0 F9000 X115.385 Y112.8
G1 F1500 X100.756 Y112.8 E17.74609
G0 F9000 X100.756 Y112.4
G1 F1500 X115.385 Y112.4 E17.8434
G0 F9000 X115.385 Y112
G1 F1500 X100.756 Y112 E17.94072
G0 F9000 X100.756 Y111.6
G1 F1500 X115.385 Y111.6 E18.03803
G0 F9000 X115.385 Y111.2
G1 F1500 X100.756 Y111.2 E18.13534
G0 F9000 X100.756 Y110.8
G1 F1500 X115.385 Y110.8 E18.23265
G0 F9000 X115.385 Y110.4
G1 F1500 X100.756 Y110.4 E18.32997
G0 F9000 X100.756 Y110
G1 F1500 X115.385 Y110 E18.42728
G0 F9000 X115.385 Y109.6
G1 F1500 X100.756 Y109.6 E18.52459
G0 F9000 X100.756 Y109.2
G1 F1500 X115.385 Y109.2 E18.6219
G0 F9000 X115.385 Y108.8
G1 F1500 X100.756 Y108.8 E18.71922
G0 F9000 X100.756 Y108.4
G1 F1500 X115.385 Y108.4 E18.81653
G0 F9000 X115.385 Y108
G1 F1500 X100.756 Y108 E18.91384
G0 F9000 X100.756 Y107.6
G1 F1500 X115.385 Y107.6 E19.01115
G0 F9000 X115.385 Y107.2
G1 F1500 X100.756 Y107.2 E19.10847
G0 F9000 X100.756 Y106.8
G1 F1500 X115.385 Y106.8 E19.20578
G0 F9000 X115.385 Y106.4
G1 F1500 X100.756 Y106.4 E19.30309
G0 F9000 X100.756 Y106
G1 F1500 X115.385 Y106 E19.4004
G0 F9000 X115.385 Y105.6
G1 F1500 X100.756 Y105.6 E19.49772
G0 F9000 X100.756 Y105.2
G1 F1500 X115.385 Y105.2 E19.59503
G0 F9000 X114.545 Y105.607
;MESH:NONMESH
G0 F300 X114.545 Y105.607 Z0.32
G0 F9000 X115.275 Y113.136
G0 X115.585 Y113.446
;TIME_ELAPSED:78.735589
;LAYER:4
;TYPE:SKIN
;MESH:lightTop.stl
G1 F1500 X100.556 Y113.446 E19.695
G1 X100.556 Y104.686 E19.75327
G1 X115.585 Y104.686 E19.85325
G1 X115.585 Y113.446 E19.91152
G0 F9000 X115.275 Y113.136
G0 X114.875 Y105.395
G0 X115.2 Y104.886
G1 F1500 X115.2 Y113.246 E19.96713
G0 F9000 X114.8 Y113.246
G1 F1500 X114.8 Y104.886 E20.02274
G0 F9000 X114.4 Y104.886
G1 F1500 X114.4 Y113.246 E20.07835
G0 F9000 X114 Y113.246
G1 F1500 X114 Y104.886 E20.13396
G0 F9000 X113.6 Y104.886
G1 F1500 X113.6 Y113.246 E20.18957
G0 F9000 X113.2 Y113.246
G1 F1500 X113.2 Y104.886 E20.24518
G0 F9000 X112.8 Y104.886
G1 F1500 X112.8 Y113.246 E20.3008
G0 F9000 X112.4 Y113.246
G1 F1500 X112.4 Y104.886 E20.35641
G0 F9000 X112 Y104.886
G1 F1500 X112 Y113.246 E20.41202
G0 F9000 X111.6 Y113.246
G1 F1500 X111.6 Y104.886 E20.46763
G0 F9000 X111.2 Y104.886
G1 F1500 X111.2 Y113.246 E20.52324
G0 F9000 X110.8 Y113.246
G1 F1500 X110.8 Y104.886 E20.57885
G0 F9000 X110.4 Y104.886
G1 F1500 X110.4 Y113.246 E20.63446
G0 F9000 X110 Y113.246
G1 F1500 X110 Y104.886 E20.69007
G0 F9000 X109.6 Y104.886
G1 F1500 X109.6 Y113.246 E20.74568
G0 F9000 X109.2 Y113.246
G1 F1500 X109.2 Y104.886 E20.80129
G0 F9000 X108.8 Y104.886
G1 F1500 X108.8 Y113.246 E20.85691
G0 F9000 X108.4 Y113.246
G1 F1500 X108.4 Y104.886 E20.91252
G0 F9000 X108 Y104.886
G1 F1500 X108 Y113.246 E20.96813
G0 F9000 X107.6 Y113.246
G1 F1500 X107.6 Y104.886 E21.02374
G0 F9000 X107.2 Y104.886
G1 F1500 X107.2 Y113.246 E21.07935
G0 F9000 X106.8 Y113.246
G1 F1500 X106.8 Y104.886 E21.13496
G0 F9000 X106.4 Y104.886
G1 F1500 X106.4 Y113.246 E21.19057
G0 F9000 X106 Y113.246
G1 F1500 X106 Y104.886 E21.24618
G0 F9000 X105.6 Y104.886
G1 F1500 X105.6 Y113.246 E21.30179
G0 F9000 X105.2 Y113.246
G1 F1500 X105.2 Y104.886 E21.3574
G0 F9000 X104.8 Y104.886
G1 F1500 X104.8 Y113.246 E21.41301
G0 F9000 X104.4 Y113.246
G1 F1500 X104.4 Y104.886 E21.46863
G0 F9000 X104 Y104.886
G1 F1500 X104 Y113.246 E21.52424
G0 F9000 X103.6 Y113.246
G1 F1500 X103.6 Y104.886 E21.57985
G0 F9000 X103.2 Y104.886
G1 F1500 X103.2 Y113.246 E21.63546
G0 F9000 X102.8 Y113.246
G1 F1500 X102.8 Y104.886 E21.69107
G0 F9000 X102.4 Y104.886
G1 F1500 X102.4 Y113.246 E21.74668
G0 F9000 X102 Y113.246
G1 F1500 X102 Y104.886 E21.80229
G0 F9000 X101.6 Y104.886
G1 F1500 X101.6 Y113.246 E21.8579
G0 F9000 X101.2 Y113.246
G1 F1500 X101.2 Y104.886 E21.91351
G0 F9000 X100.8 Y104.886
G1 F1500 X100.8 Y113.246 E21.96912
G0 F9000 X101.478 Y112.406
;MESH:NONMESH
G0 F300 X101.478 Y112.406 Z0.36
G0 F9000 X114.306 Y112.706
G0 X114.306 Y113.446
;TIME_ELAPSED:96.437272
;LAYER:5
;TYPE:SKIN
;MESH:lightTop.stl
G1 F1500 X100.556 Y113.446 E22.06059
G1 X100.556 Y104.686 E22.11886
G1 X114.306 Y104.685 E22.21033
G1 X114.306 Y113.446 E22.26861
G0 F9000 X114.106 Y113.2
G1 F1500 X100.756 Y113.2 E22.35741
G0 F9000 X100.756 Y112.8
G1 F1500 X114.106 Y112.8 E22.44621
G0 F9000 X114.106 Y112.4
G1 F1500 X100.756 Y112.4 E22.53502
G0 F9000 X100.756 Y112
G1 F1500 X114.106 Y112 E22.62382
G0 F9000 X114.106 Y111.6
G1 F1500 X100.756 Y111.6 E22.71263
G0 F9000 X100.756 Y111.2
G1 F1500 X114.106 Y111.2 E22.80143
G0 F9000 X114.106 Y110.8
G1 F1500 X100.756 Y110.8 E22.89024
G0 F9000 X100.756 Y110.4
G1 F1500 X114.106 Y110.4 E22.97904
G0 F9000 X114.106 Y110
G1 F1500 X100.756 Y110 E23.06785
G0 F9000 X100.756 Y109.6
G1 F1500 X114.106 Y109.6 E23.15665
G0 F9000 X114.106 Y109.2
G1 F1500 X100.756 Y109.2 E23.24546
G0 F9000 X100.756 Y108.8
G1 F1500 X114.106 Y108.8 E23.33426
G0 F9000 X114.106 Y108.4
G1 F1500 X100.756 Y108.4 E23.42306
G0 F9000 X100.756 Y108
G1 F1500 X114.106 Y108 E23.51187
G0 F9000 X114.106 Y107.6
G1 F1500 X100.756 Y107.6 E23.60067
G0 F9000 X100.756 Y107.2
G1 F1500 X114.106 Y107.2 E23.68948
G0 F9000 X114.106 Y106.8
G1 F1500 X100.756 Y106.8 E23.77828
G0 F9000 X100.756 Y106.4
G1 F1500 X114.106 Y106.4 E23.86709
G0 F9000 X114.106 Y106
G1 F1500 X100.756 Y106 E23.95589
G0 F9000 X100.756 Y105.6
G1 F1500 X114.106 Y105.6 E24.0447
G0 F9000 X114.106 Y105.2
G1 F1500 X100.756 Y105.2 E24.1335
G0 F9000 X101.596 Y105.607
;MESH:NONMESH
G0 F300 X101.596 Y105.607 Z0.4
G0 F9000 X113.031 Y112.706
G0 X113.031 Y113.446
;TIME_ELAPSED:111.492149
;LAYER:6
;TYPE:SKIN
;MESH:lightTop.stl
G1 F1500 X100.556 Y113.446 E24.21648
G1 X100.556 Y104.686 E24.27476
G1 X113.031 Y104.686 E24.35774
G1 X113.031 Y113.446 E24.41601
G0 F9000 X112.721 Y113.136
G0 X112.322 Y105.395
G0 X112.8 Y104.886
G1 F1500 X112.8 Y113.246 E24.47162
G0 F9000 X112.4 Y113.246
G1 F1500 X112.4 Y104.886 E24.52723
G0 F9000 X112 Y104.886
G1 F1500 X112 Y113.246 E24.58285
G0 F9000 X111.6 Y113.246
G1 F1500 X111.6 Y104.886 E24.63846
G0 F9000 X111.2 Y104.886
G1 F1500 X111.2 Y113.246 E24.69407
G0 F9000 X110.8 Y113.246
G1 F1500 X110.8 Y104.886 E24.74968
G0 F9000 X110.4 Y104.886
G1 F1500 X110.4 Y113.246 E24.80529
G0 F9000 X110 Y113.246
G1 F1500 X110 Y104.886 E24.8609
G0 F9000 X109.6 Y104.886
G1 F1500 X109.6 Y113.246 E24.91651
G0 F9000 X109.2 Y113.246
G1 F1500 X109.2 Y104.886 E24.97212
G0 F9000 X108.8 Y104.886
G1 F1500 X108.8 Y113.246 E25.02773
G0 F9000 X108.4 Y113.246
G1 F1500 X108.4 Y104.886 E25.08334
G0 F9000 X108 Y104.886
G1 F1500 X108 Y113.246 E25.13895
G0 F9000 X107.6 Y113.246
G1 F1500 X107.6 Y104.886 E25.19457
G0 F9000 X107.2 Y104.886
G1 F1500 X107.2 Y113.246 E25.25018
G0 F9000 X106.8 Y113.246
G1 F1500 X106.8 Y104.886 E25.30579
G0 F9000 X106.4 Y104.886
G1 F1500 X106.4 Y113.246 E25.3614
G0 F9000 X106 Y113.246
G1 F1500 X106 Y104.886 E25.41701
G0 F9000 X105.6 Y104.886
G1 F1500 X105.6 Y113.246 E25.47262
G0 F9000 X105.2 Y113.246
G1 F1500 X105.2 Y104.886 E25.52823
G0 F9000 X104.8 Y104.886
G1 F1500 X104.8 Y113.246 E25.58384
G0 F9000 X104.4 Y113.246
G1 F1500 X104.4 Y104.886 E25.63945
G0 F9000 X104 Y104.886
G1 F1500 X104 Y113.246 E25.69506
G0 F9000 X103.6 Y113.246
G1 F1500 X103.6 Y104.886 E25.75068
G0 F9000 X103.2 Y104.886
G1 F1500 X103.2 Y113.246 E25.80629
G0 F9000 X102.8 Y113.246
G1 F1500 X102.8 Y104.886 E25.8619
G0 F9000 X102.4 Y104.886
G1 F1500 X102.4 Y113.246 E25.91751
G0 F9000 X102 Y113.246
G1 F1500 X102 Y104.886 E25.97312
G0 F9000 X101.6 Y104.886
G1 F1500 X101.6 Y113.246 E26.02873
